public/images/social_media/instagram.svg

<svg width="20" height="19" viewBox="0 0 20 19" fill="none" xmlns="http://www.w3.org/2000/svg">
<path d="M5.19896 18.8348C4.07585 18.7837 3.46574 18.5968 3.05994 18.4386C2.52224 18.2292 2.13889 17.98 1.73533 17.577C1.33177 17.174 1.082 16.7906 0.87377 16.2529C0.71549 15.8471 0.528585 15.237 0.477509 14.1139C0.421382 12.8999 0.410156 12.5356 0.410156 9.45982C0.410156 6.38403 0.422504 6.02033 0.476948 4.80516C0.528024 3.68205 0.716052 3.07307 0.873209 2.66614C1.08256 2.12844 1.33233 1.74509 1.73477 1.34097C2.13776 0.937972 2.52111 0.687643 3.05938 0.47941C3.46518 0.32113 4.07529 0.134225 5.1984 0.0831492C6.413 0.0275829 6.77783 0.0163574 9.8525 0.0163574C12.9283 0.0163574 13.292 0.0287055 14.5072 0.0831492C15.6303 0.134225 16.2393 0.322253 16.6462 0.47941C17.1839 0.687643 17.5672 0.937972 17.9708 1.34097C18.3743 1.74396 18.623 2.12788 18.8324 2.66558C18.9906 3.07138 19.1775 3.68149 19.2286 4.8046C19.2842 6.01976 19.2954 6.38347 19.2954 9.45926C19.2954 12.5339 19.2842 12.8988 19.2286 14.1139C19.1775 15.237 18.9895 15.8471 18.8324 16.2529C18.623 16.7906 18.3738 17.174 17.9708 17.577C17.5678 17.98 17.1839 18.2292 16.6462 18.4386C16.2404 18.5968 15.6303 18.7837 14.5072 18.8348C13.2931 18.8904 12.9283 18.9016 9.8525 18.9016C6.77783 18.9016 6.413 18.8909 5.19896 18.8348Z" fill="#181A1C"/>
<path d="M7.71008 9.39214C7.71008 8.2456 8.63928 7.31591 9.78581 7.31591C10.9324 7.31591 11.862 8.2456 11.862 9.39214C11.862 10.5387 10.9324 11.4684 9.78581 11.4684C8.63928 11.4684 7.71008 10.5387 7.71008 9.39214ZM6.58771 9.39214C6.58771 11.1585 8.0195 12.5902 9.78581 12.5902C11.5521 12.5902 12.9839 11.1585 12.9839 9.39214C12.9839 7.62582 11.5521 6.19403 9.78581 6.19403C8.0195 6.19403 6.58776 7.62572 6.58776 9.39214M12.3632 6.06723C12.3631 6.21505 12.4069 6.35956 12.489 6.4825C12.5711 6.60544 12.6877 6.70128 12.8243 6.7579C12.9608 6.81453 13.1111 6.82939 13.2561 6.80061C13.4011 6.77183 13.5343 6.7007 13.6388 6.59622C13.7434 6.49174 13.8146 6.35859 13.8435 6.21363C13.8724 6.06866 13.8577 5.91838 13.8012 5.78179C13.7447 5.6452 13.6489 5.52844 13.526 5.44626C13.4032 5.36409 13.2587 5.3202 13.1109 5.32014H13.1106C12.9124 5.32023 12.7224 5.39897 12.5823 5.53904C12.4422 5.67912 12.3634 5.86909 12.3632 6.06723ZM7.26962 14.4618C6.6624 14.4341 6.33235 14.333 6.11302 14.2475C5.82224 14.1343 5.61477 13.9995 5.39663 13.7817C5.17849 13.5638 5.04347 13.3566 4.93076 13.0658C4.84526 12.8465 4.74411 12.5164 4.71651 11.9092C4.68632 11.2527 4.68029 11.0555 4.68029 9.39224C4.68029 7.72901 4.68681 7.53235 4.71651 6.8753C4.74416 6.26807 4.84606 5.93858 4.93076 5.7187C5.04396 5.42791 5.17879 5.22044 5.39663 5.0023C5.61447 4.78417 5.82174 4.64914 6.11302 4.53644C6.33225 4.45093 6.6624 4.34979 7.26962 4.32219C7.92612 4.29199 8.12333 4.28596 9.78581 4.28596C11.4483 4.28596 11.6457 4.29239 12.3028 4.32229C12.91 4.34994 13.2395 4.45183 13.4594 4.53654C13.7501 4.64924 13.9576 4.78457 14.1757 5.0024C14.3939 5.22024 14.5284 5.42801 14.6416 5.7188C14.7271 5.93803 14.8283 6.26817 14.8559 6.8754C14.8861 7.53245 14.8921 7.72911 14.8921 9.39234C14.8921 11.0556 14.8861 11.2522 14.8559 11.9093C14.8282 12.5165 14.7266 12.8465 14.6416 13.0659C14.5284 13.3567 14.3936 13.5641 14.1757 13.7818C13.9579 13.9994 13.7501 14.1344 13.4594 14.2476C13.2401 14.3331 12.91 14.4343 12.3028 14.4619C11.6463 14.4921 11.449 14.4981 9.78581 14.4981C8.12259 14.4981 7.92593 14.4921 7.26962 14.4619M7.21805 3.20166C6.55502 3.23185 6.10196 3.33698 5.7063 3.49095C5.29678 3.64994 4.94964 3.86324 4.60301 4.20933C4.25637 4.55542 4.04362 4.9026 3.88462 5.31262C3.73066 5.70853 3.62553 6.16135 3.59534 6.82438C3.56464 7.48845 3.55762 7.70076 3.55762 9.39214C3.55762 11.0835 3.56464 11.2958 3.59534 11.9599C3.62553 12.623 3.73066 13.0757 3.88462 13.4717C4.04362 13.8812 4.25642 14.229 4.60301 14.5749C4.94959 14.9209 5.29628 15.1339 5.7063 15.2933C6.10271 15.4473 6.55502 15.5524 7.21805 15.5826C7.88248 15.6128 8.09444 15.6203 9.78581 15.6203C11.4772 15.6203 11.6895 15.6133 12.3536 15.5826C13.0167 15.5524 13.4694 15.4473 13.8653 15.2933C14.2748 15.1339 14.622 14.921 14.9686 14.5749C15.3153 14.2289 15.5276 13.8812 15.687 13.4717C15.841 13.0757 15.9466 12.6229 15.9763 11.9599C16.0065 11.2953 16.0135 11.0835 16.0135 9.39214C16.0135 7.70076 16.0065 7.48845 15.9763 6.82438C15.9461 6.1613 15.841 5.70828 15.687 5.31262C15.5276 4.9031 15.3147 4.55597 14.9686 4.20933C14.6225 3.86269 14.2748 3.64994 13.8658 3.49095C13.4694 3.33698 13.0166 3.23135 12.3541 3.20166C11.6899 3.17131 11.4777 3.16394 9.78656 3.16394C8.09543 3.16394 7.88273 3.17097 7.2183 3.20166" fill="white"/>
</svg>

<svg xmlns="http://www.w3.org/2000/svg" width="20" height="19" fill="none"><path fill="#181A1C" d="M5.199 18.835c-1.123-.051-1.733-.238-2.14-.396a3.58 3.58 0 0 1-1.324-.862 3.552 3.552 0 0 1-.861-1.324c-.159-.406-.345-1.016-.396-2.14C.42 12.9.41 12.537.41 9.46c0-3.076.013-3.44.067-4.655.051-1.123.24-1.732.396-2.139.21-.538.46-.92.862-1.325A3.556 3.556 0 0 1 3.059.479C3.465.321 4.075.134 5.2.083 6.412.028 6.777.016 9.851.016c3.076 0 3.44.013 4.655.067 1.123.051 1.732.24 2.14.396.537.209.92.459 1.324.862.403.403.652.787.861 1.325.159.405.345 1.015.397 2.139.055 1.215.066 1.578.066 4.654 0 3.075-.01 3.44-.066 4.655-.052 1.123-.24 1.733-.397 2.139-.209.538-.458.921-.861 1.324a3.575 3.575 0 0 1-1.325.862c-.406.158-1.016.345-2.139.396-1.214.055-1.579.067-4.655.067-3.074 0-3.439-.011-4.653-.067Z"/><path fill="#fff" d="M7.71 9.392a2.076 2.076 0 1 1 4.152 0 2.076 2.076 0 0 1-4.152 0Zm-1.122 0a3.198 3.198 0 1 0 6.396 0 3.198 3.198 0 0 0-6.396 0m5.775-3.325a.747.747 0 1 0 .748-.747.748.748 0 0 0-.748.747ZM7.27 14.462c-.608-.028-.938-.129-1.157-.214a1.936 1.936 0 0 1-.716-.466 1.922 1.922 0 0 1-.466-.716c-.086-.22-.187-.55-.214-1.157-.03-.656-.037-.854-.037-2.517 0-1.663.007-1.86.037-2.517.027-.607.13-.936.214-1.156.113-.291.248-.499.466-.717a1.92 1.92 0 0 1 .716-.466c.22-.085.55-.186 1.157-.214.656-.03.853-.036 2.516-.036 1.662 0 1.86.006 2.517.036.607.028.936.13 1.156.215.291.112.499.248.717.465.218.218.352.426.466.717.085.219.186.55.214 1.156.03.657.036.854.036 2.517 0 1.664-.006 1.86-.036 2.517-.028.607-.13.938-.214 1.157a1.93 1.93 0 0 1-.466.716 1.936 1.936 0 0 1-.717.466c-.219.085-.549.186-1.156.214-.657.03-.854.036-2.517.036-1.663 0-1.86-.006-2.516-.036m-.052-11.26c-.663.03-1.116.135-1.512.289-.41.159-.756.372-1.103.718s-.56.694-.718 1.104c-.154.396-.26.848-.29 1.511-.03.664-.037.877-.037 2.568 0 1.692.007 1.904.037 2.568.03.663.136 1.116.29 1.512.159.41.371.757.718 1.103s.693.559 1.103.718c.397.154.849.26 1.512.29.664.03.876.037 2.568.037 1.691 0 1.904-.007 2.568-.037.663-.03 1.115-.136 1.511-.29.41-.16.757-.372 1.104-.718.346-.346.559-.694.718-1.103.154-.396.26-.85.29-1.512.03-.665.037-.877.037-2.568s-.008-1.904-.038-2.568c-.03-.663-.135-1.116-.289-1.511a3.062 3.062 0 0 0-.718-1.104 3.048 3.048 0 0 0-1.103-.718c-.397-.154-.85-.26-1.512-.29-.664-.03-.876-.037-2.567-.037-1.692 0-1.904.007-2.569.038"/></svg>
